X: 42745
T: White Dragon, The
R: polka
M: 2/4
K: Eminor
|:Be d/c/B/A/|GE GE|F2 eB|eB e2|
Be d/c/B/A/|GE GE|F2 B/c/B/A/|G/F/E/D/ E2:|
|:Be ^de|BG BG|Be ^de|B2 B2|
Be ^de|BG BG|A/B/A/G/ A/B/A/F/|E2 E2:|

